actions/32/document-open-remote.svg

<svg xmlns="http://www.w3.org/2000/svg" viewBox="0 0 32 32">
  <defs
     id="defs3051">
<style type="text/css" id="current-color-scheme">.ColorScheme-Text {color:#fcfcfc;}</style>
  </defs>
  <path
     style="fill:currentColor;fill-opacity:1;stroke:none" 
     d="m 4,8 c 0,4 0,15 0,15 h 1 c 0,0 0,-5 0,-7 0,-2 2,-2 2,-2 l 3,0 3,-3 h 11 c 0,0 3,0 3,3 0,3 0,9 0,9 h 1 c 0,0 0,-8 0,-12 C 28,7 24,7 24,7 H 18 L 15,4 H 8 C 8,4 4,4 4,8 Z m 8,15 v 2 H 4 v 1 h 8 v 2 h 8 v -2 h 8 v -1 h -8 v -2 z m 4,1 c 0.828427,0 1.5,0.671573 1.5,1.5 0,0.828427 -0.671573,1.5 -1.5,1.5 -0.828427,0 -1.5,-0.671573 -1.5,-1.5 0,-0.828427 0.671573,-1.5 1.5,-1.5 z"
     id="path74" 
     class="ColorScheme-Text"
     />
</svg>

<svg xmlns="http://www.w3.org/2000/svg" viewBox="0 0 32 32">
  <defs
     id="defs3051">
    <style
       type="text/css"
       id="current-color-scheme">
      .ColorScheme-Text {
        color:#d8d8d8;
      }
      </style>
  </defs>
  <path
     style="fill:currentColor;fill-opacity:1;stroke:none" 
     d="M 4 4 L 4 23 L 5 23 L 5 14 L 10 14 L 13 11 L 27 11 L 27 23 L 28 23 L 28 7 L 18 7 L 15 4 L 4 4 z M 12 23 L 12 25 L 4 25 L 4 26 L 12 26 L 12 28 L 20 28 L 20 26 L 28 26 L 28 25 L 20 25 L 20 23 L 12 23 z M 16 24 A 1.5 1.5 0 0 1 17.5 25.5 A 1.5 1.5 0 0 1 16 27 A 1.5 1.5 0 0 1 14.5 25.5 A 1.5 1.5 0 0 1 16 24 z "
     id="path74" 
     class="ColorScheme-Text"
     />
</svg>
